X:1
T:Title
T:Kočka leze dírou
T:M. Kolba
C:Composer
%%score ( 1 2 )
L:1/8
M:2/4
K:G
V:1 treble-8 nm="Klasická kytara" snm="Kyt."
V:2 treble-8 
V:1
 G,A, B,C | D[GB] D[GB] | E[Gc] E[Gc] | z [GB] z [GB] | E[Gc] E[Gc] | z [GB] z [GB] | CC CC | %7
 B,[GB] B,[GB] | A,[Ac] A,[Ac] | D4 | CC CC | B,[GB] B,[GB] | A,[cf] A, z | G,4 |] %14
V:2
 x4 | x4 | x4 | D4 | x4 | D4 | x4 | x4 | x4 | z [GB] z [GB] | x4 | x4 | x4 | z z [GBg] z |] %14

